X:356
T:The Irish Rover
S:Colin Hume's website,  colinhume.com  - chords can also be printed below the stave.
Q:1/2=120
M:2/2
L:1/4
K:D
[| AF | "D"D2 FG | "D"A2 de | "D"f2 ed | "G"d2 cB | "D"A2 BA | "Bm"F2 GF | "Em"E4 - | "A7"E2 FE |
"D"D2 FG | "D"A2 de | "D"f2 ed | "G"d2 cB | "D"A2 BA | "A7"FG -GE | "D"D4 - | "D"D2 A2 ||
"D"dd2e | "D"f2 ed | "A7"ee2c | "A7"A2 Bc | "D"dd2e | "D"f2 ed | "A7"e3c | "A7"A2 FE |
"D"D2 FG | "D"A2 de | "D7"f2 ed | "G"G2 FE | "D"D2 FA | "D"d2 f2 | "A7"e4 | "D"d2 |]

